src/assets/contato/instagram-contato.svg

<svg width="26" height="26" viewBox="0 0 26 26" fill="none" xmlns="http://www.w3.org/2000/svg">
<g clip-path="url(#clip0_35_175)">
<path d="M13 2.34325C16.471 2.34325 16.8827 2.35625 18.2542 2.41908C21.7772 2.57942 23.4228 4.251 23.5831 7.748C23.6459 9.11842 23.6578 9.53008 23.6578 13.0011C23.6578 16.4732 23.6448 16.8838 23.5831 18.2542C23.4217 21.7479 21.7804 23.4228 18.2542 23.5831C16.8827 23.6459 16.4732 23.6589 13 23.6589C9.529 23.6589 9.11733 23.6459 7.74692 23.5831C4.21525 23.4217 2.57833 21.7425 2.418 18.2531C2.35517 16.8827 2.34217 16.4721 2.34217 13C2.34217 9.529 2.35625 9.11842 2.418 7.74692C2.57942 4.251 4.22067 2.57833 7.74692 2.418C9.11842 2.35625 9.529 2.34325 13 2.34325ZM13 0C9.46942 0 9.02742 0.0151667 7.64075 0.078C2.91958 0.294667 0.29575 2.91417 0.0790833 7.63967C0.0151667 9.02742 0 9.46942 0 13C0 16.5306 0.0151667 16.9737 0.078 18.3603C0.294667 23.0815 2.91417 25.7053 7.63967 25.922C9.02742 25.9848 9.46942 26 13 26C16.5306 26 16.9737 25.9848 18.3603 25.922C23.0772 25.7053 25.7075 23.0858 25.9209 18.3603C25.9848 16.9737 26 16.5306 26 13C26 9.46942 25.9848 9.02742 25.922 7.64075C25.7097 2.92392 23.0869 0.29575 18.3614 0.0790833C16.9737 0.0151667 16.5306 0 13 0ZM13 6.3245C9.31342 6.3245 6.3245 9.31342 6.3245 13C6.3245 16.6866 9.31342 19.6766 13 19.6766C16.6866 19.6766 19.6755 16.6877 19.6755 13C19.6755 9.31342 16.6866 6.3245 13 6.3245ZM13 17.3333C10.6069 17.3333 8.66667 15.3942 8.66667 13C8.66667 10.6069 10.6069 8.66667 13 8.66667C15.3931 8.66667 17.3333 10.6069 17.3333 13C17.3333 15.3942 15.3931 17.3333 13 17.3333ZM19.9398 4.50125C19.0775 4.50125 18.3788 5.2 18.3788 6.06125C18.3788 6.9225 19.0775 7.62125 19.9398 7.62125C20.8011 7.62125 21.4988 6.9225 21.4988 6.06125C21.4988 5.2 20.8011 4.50125 19.9398 4.50125Z" fill="#48CAE4"/>
</g>
<defs>
<clipPath id="clip0_35_175">
<rect width="26" height="26" fill="white"/>
</clipPath>
</defs>
</svg>

<svg xmlns="http://www.w3.org/2000/svg" width="26" height="26" fill="none"><g clip-path="url(#a)"><path fill="#48CAE4" d="M13 2.343c3.471 0 3.883.013 5.254.076 3.523.16 5.169 1.832 5.33 5.329.062 1.37.074 1.782.074 5.253 0 3.472-.013 3.883-.075 5.253-.161 3.494-1.803 5.169-5.329 5.33-1.371.062-1.78.075-5.254.075-3.471 0-3.883-.013-5.253-.076-3.532-.161-5.169-1.84-5.329-5.33-.063-1.37-.076-1.78-.076-5.253 0-3.471.014-3.882.076-5.253.161-3.496 1.803-5.169 5.329-5.329 1.371-.062 1.782-.075 5.253-.075ZM13 0C9.47 0 9.027.015 7.64.078 2.92.295.297 2.914.08 7.64.014 9.027 0 9.47 0 13c0 3.53.015 3.974.078 5.36.217 4.721 2.836 7.345 7.562 7.562C9.027 25.985 9.47 26 13 26c3.53 0 3.974-.015 5.36-.078 4.717-.217 7.348-2.836 7.56-7.562.065-1.386.08-1.83.08-5.36 0-3.53-.015-3.973-.078-5.36-.212-4.716-2.835-7.344-7.56-7.56C16.973.014 16.53 0 13 0Zm0 6.324a6.676 6.676 0 1 0 0 13.352 6.676 6.676 0 0 0 0-13.351Zm0 11.01a4.333 4.333 0 1 1-.001-8.666A4.333 4.333 0 0 1 13 17.333ZM19.94 4.5a1.56 1.56 0 1 0-.001 3.121 1.56 1.56 0 0 0 0-3.12Z"/></g><defs><clipPath id="a"><path fill="#fff" d="M0 0h26v26H0z"/></clipPath></defs></svg>
